static/logos/zeplin-wordmark-color.svg

<svg width="100" height="31" viewBox="0 0 100 31" fill="none" xmlns="http://www.w3.org/2000/svg">
<g clip-path="url(#clip0_1_312)">
<path fill-rule="evenodd" clip-rule="evenodd" d="M4.54466 21.7546L0.59375 17.3364L12.6874 12.9346L14.5692 18.1073L4.54466 21.7546Z" fill="#F89920"/>
<path fill-rule="evenodd" clip-rule="evenodd" d="M4.51358 21.6728L4.32812 27.6001L16.4217 23.1982L14.5399 18.0255L4.51358 21.6728Z" fill="#FFBE22"/>
<path fill-rule="evenodd" clip-rule="evenodd" d="M38.1245 9.54102C39.8499 14.541 34.2899 21.1101 25.6408 24.2592C16.9917 27.4083 8.50901 25.9501 6.61719 21.0092L38.1245 9.54102Z" fill="#F0670A"/>
<path fill-rule="evenodd" clip-rule="evenodd" d="M38.1244 9.541C36.2444 4.58914 27.7535 3.1246 19.0953 6.27551C10.4371 9.42645 4.87345 16.0074 6.61617 21.0001L38.1244 9.541Z" fill="#FFD00E"/>
<path fill-rule="evenodd" clip-rule="evenodd" d="M38.1226 9.54102C39.1981 12.8865 33.1617 18.0865 24.539 21.2337C15.9162 24.381 7.94264 24.261 6.61719 21.0083L38.1226 9.54102Z" fill="#F89920"/>
<path fill-rule="evenodd" clip-rule="evenodd" d="M38.1192 9.54113C36.8129 6.27201 28.8283 6.15564 20.1919 9.29932C11.5556 12.443 5.51287 17.663 6.61378 21.0084L38.1192 9.54113Z" fill="#FFBE22"/>
<path d="M23.5899 5.0038C22.7671 2.15835 21.8308 0.580161 20.7662 0.610161C18.708 0.668343 18.0162 7.19471 18.6826 15.5574C19.3553 24.0092 21.1008 30.3574 23.2789 30.3001C24.5771 30.2665 25.308 28.1892 25.5653 24.582C25.5708 24.5092 25.488 24.5592 25.4926 24.4838C25.4926 24.4838 25.4817 24.352 25.4335 24.3492L25.1571 24.3311C24.9299 27.8311 24.2462 29.8492 23.2662 29.8765C21.4771 29.922 19.748 23.6429 19.1026 15.5238C18.4662 7.53744 19.1517 1.07835 20.7771 1.03289C21.5462 1.01107 22.4089 2.46471 23.1717 5.08562L23.5899 4.99471V5.0038Z" fill="#F0670A"/>
<path d="M13.3859 2.9727C11.6314 4.0527 14.2968 10.05 19.055 16.96C23.8641 23.9418 28.5504 28.5672 30.4068 27.4291C31.4432 26.7927 31.1523 24.8618 29.8159 21.9472C29.7859 21.8745 29.7195 21.8263 29.6341 21.8172C29.5486 21.8082 29.4814 21.8445 29.4377 21.9082C29.3941 21.9718 29.3877 22.0536 29.4232 22.1236C30.665 24.8327 30.9323 26.6054 30.1759 27.0691C28.6486 28.0054 24.0141 23.4291 19.3941 16.72C14.8504 10.1218 12.2141 4.18725 13.5986 3.33361C14.335 2.88088 16.0823 3.97361 18.3941 6.33361C18.4195 6.36088 18.5668 6.5127 18.6004 6.5227C18.6732 6.54452 18.6368 6.3927 18.6932 6.33634C18.7332 6.29725 18.7568 6.24361 18.7568 6.18725C18.7568 6.13088 18.7359 6.07816 18.6959 6.03725C16.2268 3.51543 14.3741 2.35725 13.3759 2.97179L13.3859 2.9727Z" fill="#F0670A"/>
<path fill-rule="evenodd" clip-rule="evenodd" d="M57.1904 17.9609H61.8176V20.2727H54.4922V10.6363H61.8176V12.9491H57.1904V14.1063H60.0813V16.42H57.1904V17.9609ZM78.2022 17.9609H82.4431V20.2727H75.504V10.6363H78.204L78.2022 17.9609ZM85.1422 10.6354H87.8422V20.2727H85.1422V10.6354ZM90.9236 10.6354V20.2727H93.43V14.8745L96.9 20.2727H99.4064V10.6345H96.9V16.1127L93.43 10.6491L90.9236 10.6354Z" fill="#574751"/>
<path d="M67.2164 15.0691H69.1473C69.299 15.0691 69.4493 15.0392 69.5895 14.981C69.7297 14.9229 69.857 14.8377 69.9643 14.7302C70.0716 14.6229 70.1566 14.4953 70.2145 14.3551C70.2724 14.2148 70.302 14.0644 70.3018 13.9127C70.3022 13.7609 70.2726 13.6104 70.2148 13.4701C70.1568 13.3296 70.0718 13.2021 69.9647 13.0945C69.8574 12.9871 69.7299 12.9018 69.5898 12.8436C69.4495 12.7853 69.2991 12.7554 69.1473 12.7554H67.2155V15.0691H67.2164ZM69.5328 10.6354C70.4018 10.6354 71.2346 10.9809 71.8491 11.5954C72.4637 12.21 72.8082 13.0436 72.8082 13.9136C72.8082 14.7836 72.4628 15.6163 71.8491 16.2318C71.2355 16.8472 70.4018 17.1918 69.5328 17.1918H67.4873V20.2727H64.7109V10.6345H69.5318L69.5328 10.6354Z" fill="#574751"/>
<path fill-rule="evenodd" clip-rule="evenodd" d="M51.4114 12.9482V10.6364H43.5078V12.949H47.9414L43.5078 17.9617V20.2754H51.4114V17.9617H47.1705L51.4114 12.9482Z" fill="#574751"/>
</g>
<defs>
<clipPath id="clip0_1_312">
<rect width="100" height="30.9091" fill="white"/>
</clipPath>
</defs>
</svg>

<svg xmlns="http://www.w3.org/2000/svg" width="206.452" height="64" fill="none" viewBox="0 0 100 31"><g clip-path="url(#a)"><path fill="#F89920" fill-rule="evenodd" d="M4.545 21.755.594 17.336l12.093-4.401 1.882 5.172-10.024 3.648Z" clip-rule="evenodd"/><path fill="#FFBE22" fill-rule="evenodd" d="M4.514 21.673 4.328 27.6l12.094-4.402-1.882-5.172-10.026 3.647Z" clip-rule="evenodd"/><path fill="#F0670A" fill-rule="evenodd" d="M38.124 9.541c1.726 5-3.834 11.57-12.483 14.718-8.65 3.15-17.132 1.691-19.024-3.25L38.124 9.541Z" clip-rule="evenodd"/><path fill="#FFD00E" fill-rule="evenodd" d="M38.124 9.541c-1.88-4.952-10.37-6.416-19.029-3.265C10.437 9.426 4.873 16.007 6.616 21L38.124 9.541Z" clip-rule="evenodd"/><path fill="#F89920" fill-rule="evenodd" d="M38.123 9.541c1.075 3.345-4.961 8.546-13.584 11.693-8.623 3.147-16.596 3.027-17.922-.226L38.123 9.541Z" clip-rule="evenodd"/><path fill="#FFBE22" fill-rule="evenodd" d="M38.12 9.541c-1.307-3.269-9.292-3.385-17.928-.242-8.636 3.144-14.68 8.364-13.578 11.71L38.119 9.54Z" clip-rule="evenodd"/><path fill="#F0670A" d="M23.59 5.004C22.767 2.158 21.83.58 20.766.61c-2.058.058-2.75 6.585-2.083 14.947.672 8.452 2.418 14.8 4.596 14.743 1.298-.034 2.029-2.11 2.286-5.718.006-.073-.077-.023-.072-.098 0 0-.011-.132-.06-.135l-.276-.018c-.227 3.5-.91 5.518-1.89 5.546-1.79.045-3.519-6.234-4.164-14.353-.637-7.987.049-14.446 1.674-14.491.77-.022 1.632 1.432 2.395 4.053l.418-.091v.009Z"/><path fill="#F0670A" d="M13.386 2.973c-1.755 1.08.91 7.077 5.669 13.987 4.81 6.982 9.495 11.607 11.352 10.47 1.036-.637.745-2.568-.591-5.483a.214.214 0 0 0-.182-.13.203.203 0 0 0-.196.091.21.21 0 0 0-.015.216c1.242 2.709 1.51 4.481.753 4.945-1.527.936-6.162-3.64-10.782-10.349-4.544-6.598-7.18-12.533-5.795-13.386.736-.453 2.483.64 4.795 3 .026.027.173.179.206.189.073.022.037-.13.093-.187a.21.21 0 0 0 .003-.299c-2.47-2.522-4.322-3.68-5.32-3.065h.01Z"/><path fill="#574751" fill-rule="evenodd" d="M57.19 17.96h4.628v2.313h-7.326v-9.637h7.326v2.313H57.19v1.157h2.891v2.314h-2.89v1.54Zm21.012 0h4.241v2.313h-6.939v-9.637h2.7l-.002 7.325Zm6.94-7.325h2.7v9.638h-2.7v-9.638Zm5.782 0v9.638h2.506v-5.399l3.47 5.399h2.506v-9.639H96.9v5.479l-3.47-5.464-2.506-.014Z" clip-rule="evenodd"/><path fill="#574751" d="M67.216 15.07h1.931a1.153 1.153 0 0 0 1.155-1.157 1.154 1.154 0 0 0-1.155-1.158h-1.931v2.314Zm2.317-4.435a3.275 3.275 0 0 1 3.275 3.279c0 .87-.345 1.702-.959 2.318a3.27 3.27 0 0 1-2.316.96h-2.046v3.08h-2.776v-9.637h4.822Z"/><path fill="#574751" fill-rule="evenodd" d="M51.411 12.948v-2.312h-7.903v2.313h4.433l-4.433 5.013v2.313h7.903v-2.313h-4.24l4.24-5.014Z" clip-rule="evenodd"/></g><defs><clipPath id="a"><path fill="#fff" d="M0 0h100v30.909H0z"/></clipPath></defs></svg>
